images/email.svg

<svg enable-background="new 0 0 512 512" fill="#f813f5" viewBox="0 0 512 512" xmlns="http://www.w3.org/2000/svg"><path d="m511.609 197.601c-.001-.77-.173-1.933-.472-2.603-.787-2.854-2.536-5.461-5.154-7.281l-73.292-50.948v-54.616c0-7.24-5.872-13.112-13.112-13.112h-84.319l-71.743-49.878c-4.484-3.121-10.437-3.134-14.935-.026l-72.206 49.904h-83.95c-7.242 0-13.112 5.872-13.112 13.112v53.973l-73.648 50.901c-3.623 2.504-5.583 6.507-5.645 10.6-.004.077-.021.15-.021.23l.391 284.235c.005 3.477 1.391 6.81 3.852 9.266 2.458 2.451 5.788 3.827 9.26 3.827h.018l485.385-.667c7.24-.01 13.104-5.889 13.094-13.13zm-78.919-28.893 41.898 29.118-41.898 29.128zm-176.675-122.824 33.31 23.156h-66.812zm-150.477 49.381h300.928v149.921l-101.036 70.242-41.194-31.954c-.064-.05-.119-.081-.181-.126-4.604-3.454-11.116-3.581-15.894.126l-41.493 32.185-101.13-69.893zm-26.224 72.738v59.64l-43.146-29.819zm-53.056 54.864 158.669 109.655-158.349 122.824zm25.617 246.042 204.324-158.484 203.591 157.923zm275.269-136.638 158.276-110.036.32 233.059z"/><path d="m344.77 147.713h-177.536c-7.24 0-13.112 5.872-13.112 13.112s5.872 13.112 13.112 13.112h177.536c7.242 0 13.112-5.872 13.112-13.112s-5.87-13.112-13.112-13.112z"/><path d="m344.77 215.895h-177.536c-7.24 0-13.112 5.872-13.112 13.112s5.872 13.112 13.112 13.112h177.536c7.242 0 13.112-5.872 13.112-13.112s-5.87-13.112-13.112-13.112z"/></svg>

<?xml version="1.0" encoding="iso-8859-1"?>
<!-- Generator: Adobe Illustrator 19.0.0, SVG Export Plug-In . SVG Version: 6.00 Build 0)  -->
<svg version="1.1" id="Layer_1" fill="#f813f5" xmlns="http://www.w3.org/2000/svg" xmlns:xlink="http://www.w3.org/1999/xlink" x="0px" y="0px"
	 viewBox="0 0 512 512" style="enable-background:new 0 0 512 512;" xml:space="preserve">
<g>
	<g>
		<path d="M511.609,197.601c-0.001-0.77-0.173-1.933-0.472-2.603c-0.787-2.854-2.536-5.461-5.154-7.281l-73.292-50.948V82.153
			c0-7.24-5.872-13.112-13.112-13.112H335.26l-71.743-49.878c-4.484-3.121-10.437-3.134-14.935-0.026l-72.206,49.904H92.426
			c-7.242,0-13.112,5.872-13.112,13.112v53.973L5.666,187.027c-3.623,2.504-5.583,6.507-5.645,10.6
			C0.017,197.704,0,197.777,0,197.857l0.391,284.235c0.005,3.477,1.391,6.81,3.852,9.266c2.458,2.451,5.788,3.827,9.26,3.827
			c0.007,0,0.012,0,0.018,0l485.385-0.667c7.24-0.01,13.104-5.889,13.094-13.13L511.609,197.601z M432.69,168.708l41.898,29.118
			l-41.898,29.128V168.708z M256.015,45.884l33.31,23.156h-66.812L256.015,45.884z M105.538,95.265h300.928v149.921L305.43,315.428
			l-41.194-31.954c-0.064-0.05-0.119-0.081-0.181-0.126c-4.604-3.454-11.116-3.581-15.894,0.126l-41.493,32.185l-101.13-69.893
			V95.265z M79.314,168.003v59.64l-43.146-29.819L79.314,168.003z M26.258,222.867l158.669,109.655L26.578,455.346L26.258,222.867z
			 M51.875,468.909l204.324-158.484l203.591,157.923L51.875,468.909z M327.144,332.271l158.276-110.036l0.32,233.059
			L327.144,332.271z"/>
	</g>
</g>
<g>
	<g>
		<path d="M344.77,147.713H167.234c-7.24,0-13.112,5.872-13.112,13.112s5.872,13.112,13.112,13.112H344.77
			c7.242,0,13.112-5.872,13.112-13.112S352.012,147.713,344.77,147.713z"/>
	</g>
</g>
<g>
	<g>
		<path d="M344.77,215.895H167.234c-7.24,0-13.112,5.872-13.112,13.112c0,7.24,5.872,13.112,13.112,13.112H344.77
			c7.242,0,13.112-5.872,13.112-13.112C357.882,221.767,352.012,215.895,344.77,215.895z"/>
	</g>
</g>
<g>
</g>
<g>
</g>
<g>
</g>
<g>
</g>
<g>
</g>
<g>
</g>
<g>
</g>
<g>
</g>
<g>
</g>
<g>
</g>
<g>
</g>
<g>
</g>
<g>
</g>
<g>
</g>
<g>
</g>
</svg>
